X:1447
T:Engelska efter Mattis Kollberg
O:Skepparkroken, Skåne
R:Engelska
D:Åsbo Spelemän: "Maka daj lite" (ÅSCD0401)
M:2/4
Q:1/4=90
K:D
|: afaf d2df | efge fdd2 | afaf d2df| efge e2d2 :|
|: cdef g2e2 | defg a2f2 | efga bgfe | e2dc d4 :|
|: aba2 bagf | edce defg | aba2 bagf edce d4 :|
(:musicend:)
(:music:)
